X: 9
T:Kitty's Wedding
M:4/4
L:1/8
R:Hornpipe
K:D
fe[|:d2Bd A2FA|BAFA D2ED|B,DA,B, DFBF|AFDF E2fe|!
d2Bd A2FA|BAFA D2ED|(B,DA,B, DFBF|1AFEF D2fe:|2AFEF D2fg|!
|:afed bafd|Adfd edBA|DFAd FAde|fdgf e2fg|!
afed bafd|Adfd edBA|DFAd FAdf|1eABc d2fg:|2eABc d2fe|]!
